X:14
T:slide
R:slide
C:Henrik Norbeck
H:March 1997
M:6/8
K:D
ABc d2e|f2e d2B|ABA d2e|f3 a3|ABc d2e|f2e d2B|ABA A2F|G3 B3:|
|:A2a g2e|fed edB|A2a g2e|faf e3|A2a g2e|fed edB|A2B AGF|G3 B3:|

